lib/flags/m/PA.svg

<svg xmlns="http://www.w3.org/2000/svg" fill="none" viewBox="0 0 20 15"><mask id="PA_svg__a" width="20" height="15" x="0" y="0" mask-type="alpha" maskUnits="userSpaceOnUse"><path fill="#fff" d="M0 0H20V15H0z"/></mask><g mask="url(#PA_svg__a)"><path fill="#F7FCFF" fill-rule="evenodd" d="M0 0V15H20V0H0Z" clip-rule="evenodd"/><mask id="PA_svg__b" width="20" height="15" x="0" y="0" mask-type="alpha" maskUnits="userSpaceOnUse"><path fill="#fff" fill-rule="evenodd" d="M0 0V15H20V0H0Z" clip-rule="evenodd"/></mask><g fill-rule="evenodd" clip-rule="evenodd" mask="url(#PA_svg__b)"><path fill="#E31D1C" d="M10 0V7.5H20V0H10zM14.3881 11.9685 12.949 12.8589 13.5077 11.3641 12.2845 10.2324H13.7682L14.3881 8.61548 14.8611 10.2324H16.347L15.2762 11.3641 15.8005 12.8589 14.3881 11.9685z"/><path fill="#2E42A5" d="M5.63807 5.228 4.19905 6.11845 4.75772 4.62362 3.53455 3.49194H5.01816L5.63807 1.875 6.11114 3.49194H7.59705L6.52618 4.62362 7.05048 6.11845 5.63807 5.228zM0 7.5V15H10V7.5H0z"/></g></g></svg>

<svg xmlns="http://www.w3.org/2000/svg" fill="none" viewBox="0 0 20 15"><mask id="PA_svg__a" width="20" height="15" x="0" y="0" maskUnits="userSpaceOnUse"><path fill="#fff" d="M0 0h20v15H0z"/></mask><g mask="url(#PA_svg__a)"><path fill="#F7FCFF" fill-rule="evenodd" d="M0 0v15h20V0H0z" clip-rule="evenodd"/><mask id="PA_svg__b" width="20" height="15" x="0" y="0" maskUnits="userSpaceOnUse"><path fill="#fff" fill-rule="evenodd" d="M0 0v15h20V0H0z" clip-rule="evenodd"/></mask><g fill-rule="evenodd" clip-rule="evenodd" mask="url(#PA_svg__b)"><path fill="#E31D1C" d="M10 0v7.5h10V0H10zm4.388 11.969l-1.439.89.559-1.495-1.223-1.132h1.483l.62-1.616.473 1.617h1.486l-1.07 1.131.524 1.495-1.413-.89z"/><path fill="#2E42A5" d="M5.638 5.228l-1.439.89.559-1.494-1.223-1.132h1.483l.62-1.617.473 1.617h1.486l-1.07 1.132.523 1.494-1.412-.89zM0 7.5V15h10V7.5H0z"/></g></g></svg>
